atlases.vromfs.bin_u/gameuiskin/grenade_tnt_block.svg

<svg width="128" height="128" viewBox="0 0 128 128" fill="none" xmlns="http://www.w3.org/2000/svg">
<path fill-rule="evenodd" clip-rule="evenodd" d="M97.805 124.04H44.266C42.8789 124.04 41.5487 123.489 40.5678 122.508C39.587 121.527 39.036 120.197 39.036 118.81V75.9351H103.036V118.81C103.036 119.497 102.901 120.177 102.638 120.812C102.375 121.446 101.99 122.023 101.504 122.509C101.018 122.994 100.441 123.379 99.8068 123.642C99.1721 123.905 98.4919 124.04 97.805 124.04ZM39.036 59.8111C39.0365 59.0388 39.3437 58.2984 39.8899 57.7526C40.4362 57.2067 41.1768 56.9001 41.949 56.9001H100.123C100.896 56.9003 101.636 57.2073 102.183 57.7536C102.729 58.2998 103.036 59.0406 103.036 59.8131V69.0431H39.036V59.8131V59.8111ZM84.986 48.9911H98.129V54.1001H84.986V48.9911ZM60.958 21.9351V42.8741C60.958 45.6351 62.443 48.7541 65.023 49.8741V54.1001H48.905V49.8741C51.605 48.8851 52.97 45.6351 52.97 42.8741V21.9351H60.958ZM85.536 16.0761H66.836C66.6314 16.6502 66.2544 17.1471 65.7566 17.4989C65.2588 17.8506 64.6645 18.04 64.055 18.0411H50.013C49.4035 18.04 48.8092 17.8506 48.3114 17.4989C47.8136 17.1471 47.4366 16.6502 47.232 16.0761H28.532C25.771 16.0761 25.532 13.8371 25.532 11.0761C25.532 8.31506 25.771 6.01406 28.532 6.01406H47.213C47.4081 5.42519 47.7835 4.91259 48.286 4.54882C48.7885 4.18504 49.3927 3.98852 50.013 3.98706H64.059C64.6794 3.98837 65.2837 4.18483 65.7862 4.54863C66.2887 4.91242 66.664 5.42511 66.859 6.01406H85.536C88.297 6.01406 88.536 8.31406 88.536 11.0771C88.536 13.8401 88.3 16.0761 85.536 16.0761Z" fill="white"/>
</svg>

<svg xmlns="http://www.w3.org/2000/svg" width="128" height="128" viewBox="0 0 128 128">
  <defs>
    <style>
      .cls-1 {
        fill: #e0e0e0;
        fill-rule: evenodd;
      }
    </style>
  </defs>
  <path id="item_tnt_block_exploder" class="cls-1" d="M97.805,124.04H44.266a5.23,5.23,0,0,1-5.23-5.23V75.935h64V118.81A5.23,5.23,0,0,1,97.805,124.04ZM39.036,59.811A2.913,2.913,0,0,1,41.949,56.9h58.174a2.914,2.914,0,0,1,2.913,2.913v9.23h-64v-9.23Zm45.95-10.82H98.129V54.1H84.986V48.991ZM60.958,21.935V42.874c0,2.761,1.485,5.88,4.065,7V54.1H48.905V49.874c2.7-.989,4.065-4.239,4.065-7V21.935h7.988Zm24.578-5.859h-18.7a2.958,2.958,0,0,1-2.781,1.965H50.013a2.958,2.958,0,0,1-2.781-1.965h-18.7c-2.761,0-3-2.239-3-5s0.239-5.062,3-5.062H47.213a2.957,2.957,0,0,1,2.8-2.027H64.059a2.956,2.956,0,0,1,2.8,2.027H85.536c2.761,0,3,2.3,3,5.063S88.3,16.076,85.536,16.076Z"/>
</svg>
